!!!COM:	la Rue, Pierre de
!!!CDT:	~1452///-1518/11/20
!!!OPR:	Missa Nunca fu&eacute; pena mayor
!!!ONM:	4
!!!OTL:	Sanctus
!!!AGN:	Mass; Sanctus
!!!SCT:	Rue1020d
!!!SCA:	Rue1020d
!!!voices:	4
!!!voices-OPR:	4
**kern	**kern	**kern	**kern
*staff4	*staff3	*staff2	*staff1
*Ivox	*Ivox	*Ivox	*Ivox
*I"Bassus	*I"Tenor	*I"Contra	*I"Discantus
*I'B	*I'T	*I'C	*I'D
*>[A,B,C,D]	*>[A,B,C,D]	*>[A,B,C,D]	*>[A,B,C,D]
*>A	*>A	*>A	*>A
*clefF4	*clefGv2	*clefGv2	*clefG2
*k[]	*k[]	*k[]	*k[]
*M3/1	*M3/1	*M3/1	*M3/1
*met(O)	*met(O)	*met(O)	*met(O)
!!section: Sanctus
!!!OMD: Sanctus
=1-	=1-	=1-	=1-
0.r	0.r	1E	0.r
.	.	0G	.
=2	=2	=2	=2
0.r	0.r	1A	1e
.	.	1B	0g
.	.	2B\	.
.	.	[2c\	.
=3	=3	=3	=3
0.r	[0.e	4c\]	1a
.	.	4B\	.
.	.	1A	.
.	.	.	0b
.	.	4G#i/	.
.	.	4F#i/	.
.	.	1G#i	.
=4	=4	=4	=4
0.A	0e]	1A	1cc
.	.	2.c\	2r
.	.	.	1cc
.	.	4d\	.
.	1c	2e\	.
.	.	[2f\	[2a/
=5	=5	=5	=5
1F	0d	4f\]	2a/]
.	.	4e\	.
.	.	4d\	2a/
.	.	4c\	.
1G	.	2B\	1b
.	.	2G/	.
[1D	1d	2d\	2b\
.	.	[2f\	[2dd\
=6	=6	=6	=6
1D]	0A	2f\]	2dd\]
.	.	2f\	2dd\
0A	.	1e	2cc\
.	.	.	1a
.	[1e	2.c\	.
.	.	.	[2cc\
.	.	4d\	.
=7	=7	=7	=7
2A\	1e]	4e\	2cc\]
.	.	4f\	.
1G	.	2.g\	2b\
.	0d	.	2g/
.	.	4f\	.
2G\	.	4d\	2b-i\
.	.	4e\	.
2F\	.	[1f	2a/
2D\	.	.	2f/
=8	=8	=8	=8
2.F\	2c\	1f]	2.a/
.	2A/	.	.
4G\	.	.	4g/
0A	0c	1r	0e
.	.	1r	.
=9	=9	=9	=9
0.r	2.c\	2r	2r
.	.	1c	2e/
.	4d\	.	.
.	0e	.	2.g/
.	.	4B\	.
.	.	4A/	4a/
.	.	2G/	2b\
.	.	2A/	[2cc\
=10	=10	=10	=10
1r	0.r	2.c\	2cc\]
.	.	.	4b\
.	.	4d\	4a/
1r	.	2e\	2g/
.	.	2.f\	2.a/
1F	.	.	.
.	.	4e\	4g/
.	.	4d\	4f/
.	.	4c\	4e/
=11	=11	=11	=11
0.G	0.r	2B\	2d/
.	.	2c\	1e
.	.	2G/	.
.	.	1c	4d/
.	.	.	4c/
.	.	.	1d
.	.	2B\	.
=12	=12	=12	=12
0.A	1r	1c	1c
.	1r	1r	2r
.	.	.	2c/
.	1c	1r	[1f
=13	=13	=13	=13
0.B-i	0.d	1r	2f/]
.	.	.	2f/
.	.	0G	0g
=14	=14	=14	=14
0A	0.e	1.c	1a
.	.	.	1cc
.	.	4B\	.
.	.	4A/	.
1r	.	1G	1b
=15	=15	=15	=15
0F	0.f	2r	2r
.	.	1c	1a
.	.	2c\	1a
1F	.	1c	.
.	.	.	2a/
=16	=16	=16	=16
2.G\	0.e	0B	2b\
.	.	.	1g
4E\	.	.	.
0E	.	.	.
.	.	.	1g
.	.	1B	.
.	.	.	2g/
=17	=17	=17	=17
1F	0.c	1A	2a/
.	.	.	2.cc\
2E\	.	2G/	.
.	.	.	4b\
2F\	.	2F/	2a/
1E	.	1G	1g
=18	=18	=18	=18
2.D\	0d	1A	1f
4E\	.	.	.
2F\	.	1r	2f/
2.G\	.	.	1d
.	1B	1r	.
4F\	.	.	.
4E\	.	.	2d/
4D\	.	.	.
=19	=19	=19	=19
2.C/	1c	0.r	2.e/
4D\	.	.	4f/
2E\	2B\	.	2g/
2C/	2c\	.	1a
2D\	1B	.	.
2E\	.	.	2g#i/
=20	=20	=20	=20
2AA/	[0.A	0.r	1.a
2.F\	.	.	.
4E\	.	.	.
1D	.	.	4g/
.	.	.	4f/
.	.	.	1e
2C#i/	.	.	.
=21	=21	=21	=21
1D	0A]	1f	2r
.	.	.	2d/
2C/	.	2e\	2e/
2D\	.	2.d\	2f/
1E	1G	.	1g
.	.	8c#i\L	.
.	.	8B\J	.
.	.	2c#i\	.
=22	=22	=22	=22
1D	0A	2r	2f/
.	.	2d\	2d/
1r	.	2e\	2r
.	.	2f\	2a/
1r	1r	1g	2b\
.	.	.	2cc\
=23	=23	=23	=23
4D\	0.r	2f\	1dd
4E\	.	.	.
4F\	.	2d\	.
4G\	.	.	.
2.A\	.	2f\	2cc\
.	.	2e\	2a/
8G\L	.	.	.
8F\J	.	.	.
2E\	.	2g\	2r
2D\	.	2f\	[2dd\
=24	=24	=24	=24
2r	0.r	1e	2dd\]
2AA/	.	.	2cc\
2BB/	.	2d\	2dd\
2C/	.	2c\	2ee\
1D	.	1A	1ff
=25	=25	=25	=25
0AA	0c	2A/	1.ee
.	.	2.c\	.
.	.	4B\	.
.	.	1A	4dd\
.	.	.	4cc\
1r	1d	.	1b
.	.	2G#i/	.
=26	=26	=26	=26
1r	0c	0A	2a/
.	.	.	2.cc\
2r	.	.	.
.	.	.	4b\
2C/	.	.	1a
2D\	1B	1r	.
2E\	.	.	2g#i/
=27	=27	=27	=27
0F	0A	0c	0a
1F	1A	1d	1a
=28	=28	=28	=28
0E	2B\	0e	1g
.	2G/	.	.
.	2B\	.	2g/
.	2c\	.	1cc
1F	1A	1r	.
.	.	.	2dd\
=29	=29	=29	=29
2E\	1G	2.E/	2.ee\
2C/	.	.	.
.	.	4F/	4dd\
2E\	2G/	2G/	4cc\
.	.	.	4b\
2F\	1c	2A/	1a
1D	.	1F	.
.	2d\	.	4g/
.	.	.	4f/
=30	=30	=30	=30
1C	[0.e	1E	2a/
.	.	.	2g/
2r	.	1r	2c/
1A	.	.	1cc
.	.	2.c\	.
4G\	.	.	4b\
4F\	.	4d\	4a/
=31	=31	=31	=31
2A\	0.e_	4e\	2cc\
.	.	4f\	.
2G\	.	1g	2b\
2C/	.	.	2g/
2.c\	.	2c\	2a/
.	.	1r	2e/
4B\	.	.	.
4A\	.	.	[2a/
4G\	.	.	.
=32	=32	=32	=32
1A	0.e]	2r	2a/]
.	.	1c	1a
2A\	.	.	.
2E\	.	2B\	2g/
2r	.	2G/	1g
2E\	.	[2B\	.
=33	=33	=33	=33
0G	2r	2B\]	2r
.	1e	2.B\	2g/
.	.	.	0b
.	.	4G/	.
.	1d	1g	.
1G	.	.	.
.	2d\	2g\	.
=34	=34	=34	=34
1A	0c	2.e\	2.cc\
.	.	4A/	4dd\
2A\	.	1A	2ee\
1F	.	.	2.ff\
.	1r	1f	.
.	.	.	4ee\
2F\	.	.	4dd\
.	.	.	4cc\
=35	=35	=35	=35
2G\	0g	2d\	1b
1E	.	1e	.
.	.	.	2.b\
2E\	.	2e\	.
.	.	.	4a/
2F\	[1f	2c\	1a
[2D\	.	[2d\	.
=36	=36	=36	=36
2D\]	1f]	2d\]	2.a/
2D\	.	2d\	.
.	.	.	4g/
2E\	0e	2B\	1g
2.C/	.	4c\	.
.	.	4d\	.
.	.	4e\	2r
4D\	.	4f\	.
4E\	.	2g\	2cc\
4F\	.	.	.
=37	=37	=37	=37
1G	1d	2G/	2b\
.	.	2g\	4cc\
.	.	.	2dd\
1r	2B\	2r	.
.	.	.	4cc\
.	2c\	1g	1cc
1G	1d	.	.
.	.	2g\	2b\
=38	=38	=38	=38
2A\	1c	2.e\	2cc\
4G\	.	.	4b\
2F\	.	4d\	2a/
.	2A/	2c\	.
4E\	.	.	4g/
2E\	2B\	2.e\	2g/
2r	4c\	.	4r
.	4B\	4c\	2g/
2D\	2A/	2d\	.
.	.	.	4f/
=39	=39	=39	=39
2E\	4r	4B\	2g/
.	2G/	4G/	.
2D\	.	2d\	2a/
.	4F/	.	.
2E\	2G/	2B\	2g/
2C/	1A	2c\	2e/
1D	.	1A	2r
.	2F/	.	[2f/
=40	=40	=40	=40
2r	0.F;	1A	2f/]
1D	.	.	2d/
.	.	0B-;	0d;
2BB-/	.	.	.
1BB-i;	.	.	.
=41	=41	=41	=41
2r	[0.El	1G	[0.el
1C	.	.	.
.	.	2G/	.
2AA/	.	2.A/	.
1AA	.	.	.
.	.	4B\	.
.	.	[2c\	.
=42	=42	=42	=42
0.El	0.E]	2c\]	0.e]
.	.	2B\	.
.	.	2.G/	.
.	.	4A/	.
.	.	1Bl	.
!!LO:LB:i:g=z
=43||	=43||	=43||	=43||
*>B	*>B	*>B	*>B
*clefF4	*clefGv2	*clefGv2	*clefG2
*k[]	*k[]	*k[]	*k[]
*M2/1	*M2/1	*M2/1	*M2/1
*met(C|)	*met(C|)	*met(C|)	*met(C|)
!!section: Pleni sunt celi
!!!OMD: Pleni sunt celi
0r	0r	1e	0r
.	.	1e	.
=44	=44	=44	=44
0r	0r	1d	0r
.	.	[1e	.
=45	=45	=45	=45
1A	0r	2e\]	0r
.	.	2d\	.
1A	.	1c	.
=46	=46	=46	=46
1G	0r	1B	0r
[1A	.	2r	.
.	.	[2e\	.
=47	=47	=47	=47
2A\]	0r	2e\]	0r
2G\	.	1e	.
1F	.	.	.
.	.	2d\	.
=48	=48	=48	=48
1E	0r	1.e	0r
2r	.	.	.
[2A\	.	2d\	.
=49	=49	=49	=49
2A\]	0r	1c	0r
1A	.	.	.
.	.	1B	.
2G#i\	.	.	.
=50	=50	=50	=50
0A	0r	0r	1cc
.	.	.	1cc
=51	=51	=51	=51
1G	0r	1r	1b
[1A	.	2r	[1cc
.	.	[2e\	.
=52	=52	=52	=52
2A\]	0r	2e\]	2cc\]
2G\	.	1e	2b\
1F	.	.	1a
.	.	2d\	.
=53	=53	=53	=53
1E	0r	1.e	1g
1r	.	.	2r
.	.	2d\	[2a/
=54	=54	=54	=54
0r	0r	1c	2a/]
.	.	.	1a
.	.	1B	.
.	.	.	2g#i/
=55	=55	=55	=55
1r	0r	[0A	1.a
2r	.	.	.
[2D\	.	.	2g/
=56	=56	=56	=56
2D\]	0r	0A]	1f
1D	.	.	.
.	.	.	1e
2C#i/	.	.	.
=57	=57	=57	=57
1.D	0r	2r	2d/
.	.	1A	1f
2C/	.	[2A/	2e/
=58	=58	=58	=58
1BB	0r	2A/]	1d
.	.	2G/	.
1AA	.	2A/	1c
.	.	[2c\	.
=59	=59	=59	=59
0r	0r	2c\]	1g
.	.	2B\	.
.	.	1A	2a/
.	.	.	[2cc\
=60	=60	=60	=60
1E	0r	1G	2cc\]
.	.	.	2b\
2F\	.	1r	2a/
[2A\	.	.	[2cc\
=61	=61	=61	=61
2A\]	0r	1r	2cc\]
2G\	.	.	2b\
1F	.	1A	1a
=62	=62	=62	=62
1E	0r	2B\	2r
.	.	2c\	2.g/
1r	.	2B\	.
.	.	.	4a/
.	.	[2d\	[2b\
=63	=63	=63	=63
0r	0r	2d\]	2b\]
.	.	2c\	2cc\
.	.	2B\	2.dd\
.	.	[2d\	.
.	.	.	4cc\
=64	=64	=64	=64
1r	0r	2d\]	4b\
.	.	.	4a/
.	.	2c\	1a
1E	.	1B	.
.	.	.	2g#i/
=65	=65	=65	=65
2F\	0r	1A	2.a/
1A	.	.	.
.	.	.	4g/
.	.	1r	4f/
.	.	.	4e/
2G\	.	.	[2e/
=66	=66	=66	=66
1F	0r	1A	2e/]
.	.	.	2d/
[1E	.	1B	1e
=67	=67	=67	=67
1E]	0r	2B\	0r
.	.	2.c\	.
1E	.	.	.
.	.	4d\	.
.	.	2e\	.
=68	=68	=68	=68
0F	0r	2c\	1r
.	.	2.d\	.
.	.	.	1a
.	.	4c\	.
.	.	4B\	.
.	.	4A/	.
=69	=69	=69	=69
1E	0r	1G	1b
1r	.	[1e	2b\
.	.	.	[2cc\
=70	=70	=70	=70
0r	0r	1e]	4cc\]
.	.	.	4dd\
.	.	.	2ee\
.	.	[1f	2cc\
.	.	.	[2dd\
=71	=71	=71	=71
1D	0r	1f]	4dd\]
.	.	.	4cc\
.	.	.	4b\
.	.	.	4a/
1E	.	[1e	1g
=72	=72	=72	=72
2E\	0r	2e\]	0r
2.F\	.	4d\	.
.	.	4c\	.
.	.	2c\	.
4G\	.	.	.
2A\	.	[2f\	.
=73	=73	=73	=73
2F\	0r	4f\]	1dd
.	.	4e\	.
2.G\	.	4d\	.
.	.	4c\	.
.	.	2.B\	1dd
4F\	.	.	.
4E\	.	.	.
4D\	.	4A/	.
=74	=74	=74	=74
1C	0r	1c	1ee
1r	.	1g	2ee\
.	.	.	[2dd\
=75	=75	=75	=75
0r	0r	1g	2dd\]
.	.	.	2b\
.	.	1a	1cc
=76	=76	=76	=76
0r	0r	2a\	2cc\
.	.	1g	1b
.	.	2e\	4a/
.	.	.	4g/
=77	=77	=77	=77
0r	0r	1f	1a
.	.	2f\	2a/
.	.	[2e\	[2g/
=78	=78	=78	=78
0G	0r	2e\]	2g/]
.	.	2c\	2.cc\
.	.	1d	.
.	.	.	4b\
.	.	.	2b\
=79	=79	=79	=79
1A	0r	1c	2cc\
.	.	.	2a/
2A\	.	1r	2cc\
[2G\	.	.	2b\
=80	=80	=80	=80
2G\]	0r	0d	2g/
2E\	.	.	2b\
1F	.	.	1a
=81	=81	=81	=81
1E	0r	1e	2g/
.	.	.	2e/
1r	.	2e\	2g/
.	.	[2d\	2f/
=82	=82	=82	=82
0r	0r	2d\]	2d/
.	.	2B\	2f/
.	.	1c	1e
=83	=83	=83	=83
0D	0r	1d	1d
.	.	[1A	1r
=84	=84	=84	=84
1F	0r	1A]	1r
1E	.	1c	[1g
=85	=85	=85	=85
0G	0r	1B	1g]
.	.	[1d	1b
=86	=86	=86	=86
0F	0r	1d]	1a
.	.	[1c	[1cc
=87	=87	=87	=87
1A	0r	1c]	1cc]
1G	.	1e	[1b
=88	=88	=88	=88
0B	0r	1d	1b]
.	.	[1f	1dd
=89	=89	=89	=89
0A	0r	1f]	1cc
.	.	[1e	[1ee
=90	=90	=90	=90
1c	0r	1e]	1ee]
1B	.	[1g	[1dd
=91	=91	=91	=91
0d	0r	1g]	2dd\]
.	.	.	4cc\
.	.	.	4b\
.	.	1f#i	1a
=92	=92	=92	=92
0G	0r	1.g	1b
.	.	.	2r
.	.	4f\	[2dd\
.	.	4e\	.
=93	=93	=93	=93
1r	0r	2d\	2dd\]
.	.	2.g\	2b\
1G	.	.	1b
.	.	4f\	.
.	.	4e\	.
.	.	4d\	.
=94	=94	=94	=94
1A	0r	1c	2cc\
.	.	.	2.a/
1F	.	2c\	.
.	.	.	4g/
.	.	[2d\	2a/
=95	=95	=95	=95
2G\	0r	2d\]	1b
2.E\	.	1e	.
.	.	.	1g
4D\	.	.	.
2E\	.	2e\	.
=96	=96	=96	=96
1F	0r	2c\	2a/
.	.	2A/	2.f/
1D	.	2.d\	.
.	.	.	4e/
.	.	.	2f/
.	.	4B\	.
=97	=97	=97	=97
2E\	0r	2c\	1g
1C	.	2.c\	.
.	.	.	1e
.	.	4B\	.
2C/	.	4A/	.
.	.	4G/	.
=98	=98	=98	=98
1D	0r	0F	2f/
.	.	.	2.d/
1BB	.	.	.
.	.	.	4c/
.	.	.	2d/
=99	=99	=99	=99
4C/	0r	1E	2.e/
4D\	.	.	.
4E\	.	.	.
4F\	.	.	4d/
2G\	.	1r	2e/
[2A\	.	.	[2f/
=100	=100	=100	=100
4A\]	0r	0r	2f/]
4G\	.	.	.
2G\	.	.	1e
2.F\	.	.	.
.	.	.	2d/
4E\	.	.	.
=101	=101	=101	=101
2.C/	0r	0c	4.e/
.	.	.	8d/
.	.	.	4e/
4D\	.	.	4f/
4E\	.	.	2g/
4C/	.	.	.
[2F\	.	.	[2a/
=102	=102	=102	=102
4F\]	0r	0d	4a/]
4E\	.	.	4g/
4D\	.	.	4f/
4C/	.	.	4e/
2.BB-/	.	.	1f
4AA/	.	.	.
=103	=103	=103	=103
[0Cl	0r	3%2G	[0el
.	.	3%2A	.
.	.	3%2G	.
=104	=104	=104	=104
0C]	0r	0cl	0e]
!!LO:LB:i:g=z
=105||	=105||	=105||	=105||
*>C	*>C	*>C	*>C
*clefF4	*clefGv2	*clefGv2	*clefG2
*k[]	*k[]	*k[]	*k[]
*M2/1	*M2/1	*M2/1	*M2/1
*met(C|)	*met(C|)	*met(C|)	*met(C|)
!!section: Osanna
!!!OMD: Osanna
0C	[0c	0G	0e
=106	=106	=106	=106
1C	1c]	1G	1e
1E	1G	1E	1g
=107	=107	=107	=107
0D	1A	0F	0f
.	1B	.	.
=108	=108	=108	=108
1C	1.c	1.G	1.e
[1E	.	.	.
.	2d\	4A/	2f/
.	.	4B\	.
=109	=109	=109	=109
1E]	1e	2c\	0g
.	.	1B	.
1G	[1e	.	.
.	.	4A/	.
.	.	4G/	.
=110	=110	=110	=110
0F	1e]	0A	0r
.	1d	.	.
=111	=111	=111	=111
[0E	[0e	1.B	1r
.	.	.	[1g
.	.	4A/	.
.	.	4G/	.
=112	=112	=112	=112
0E]	0e_	0G	1g]
.	.	.	1b
=113	=113	=113	=113
0A	0e_	0c	0a
=114	=114	=114	=114
1E	0e]	1.B	1g
[1G	.	.	[1b
.	.	2c\	.
=115	=115	=115	=115
1G]	0r	0d	1b]
1B	.	.	1dd
=116	=116	=116	=116
0A	0r	1e	0cc
.	.	1f	.
=117	=117	=117	=117
0E	[0e	0g	1.b
.	.	.	4a/
.	.	.	4g/
=118	=118	=118	=118
1G	0e]	1g	1b
1A	.	1c	1cc
=119	=119	=119	=119
1B	0d	1f	1.dd
[1G	.	1g	.
.	.	.	2cc\
=120	=120	=120	=120
1G]	0g	0d	0b
1G	.	.	.
=121	=121	=121	=121
[0D	0f	1d	[0a
.	.	2A/	.
.	.	[2d\	.
=122	=122	=122	=122
0D]	0f	2d\]	0a]
.	.	4c\	.
.	.	4B\	.
.	.	1A	.
=123	=123	=123	=123
0r	0g	0G	1.b
.	.	.	4a/
.	.	.	4g/
=124	=124	=124	=124
1G	0r	2r	0g
.	.	1B	.
2G\	.	.	.
[2E\	.	4A/	.
.	.	4G/	.
=125	=125	=125	=125
2E\]	[0c	0G	1r
4D\	.	.	.
4C/	.	.	.
[1C	.	.	[1e
=126	=126	=126	=126
1C]	0c_	2G/	1e]
.	.	1A	.
1C	.	.	1e
.	.	2G/	.
=127	=127	=127	=127
0F	0c_	0A	0f
=128	=128	=128	=128
0C	0c]	1.G	0e
.	.	2A/	.
=129	=129	=129	=129
[0G	[0d	1B	1d
.	.	2c\	[1g
.	.	[2d\	.
=130	=130	=130	=130
0G]	0d]	4d\]	1g]
.	.	4c\	.
.	.	4B\	.
.	.	4A/	.
.	.	1B	1g
=131	=131	=131	=131
1C	0c	1c	2.e/
.	.	.	4f/
2E\	.	1G	2g/
2F\	.	.	2a/
=132	=132	=132	=132
1.G	[0B	0r	2b\
.	.	.	2cc\
.	.	.	1dd
4F\	.	.	.
4E\	.	.	.
=133	=133	=133	=133
2D\	0B_	2r	0r
2E\	.	2G/	.
2D\	.	2F/	.
[2G\	.	2E/	.
=134	=134	=134	=134
2G\]	0B]	1G	0dd
4F\	.	.	.
4E\	.	.	.
1D	.	1F	.
=135	=135	=135	=135
0C	1.c	2E/	1.ee
.	.	1c	.
.	2d\	4B\	4dd\
.	.	4A/	4cc\
=136	=136	=136	=136
0r	[0e	2G/	2b\
.	.	1c	1ee
.	.	2B\	2dd\
=137	=137	=137	=137
0r	0e]	1A	1cc
.	.	1G	1b
=138	=138	=138	=138
0F	0f	2r	0a
.	.	2c\	.
.	.	2A/	.
.	.	[2c\	.
=139	=139	=139	=139
2.C/	0e	2c\]	2g/
.	.	4B\	2e/
4D\	.	4A/	.
2E\	.	2G/	2g/
2F\	.	2c\	2a/
=140	=140	=140	=140
1G	1d	4B\	1b
.	.	4G/	.
.	.	1g	.
1A	1c	.	[1cc
.	.	2f#i\	.
=141	=141	=141	=141
0G	0d	0g	1cc]
.	.	.	1b
=142	=142	=142	=142
2.C/	[0c	2.e\	[0cc
4D\	.	4f\	.
2E\	.	2g\	.
[2F\	.	[2a\	.
=143	=143	=143	=143
2F\]	0c]	2a\]	0cc]
2G\	.	1g	.
1A	.	.	.
.	.	2f#i\	.
=144	=144	=144	=144
0G	0d	0g	1b
.	.	.	2b\
.	.	.	[2dd\
=145	=145	=145	=145
1.G	0B	1r	2dd\]
.	.	.	2cc\
.	.	1g	2b\
2F\	.	.	2a/
=146	=146	=146	=146
2E\	1B	2.g\	1g
2D\	.	.	.
.	.	4f\	.
1C	[1c	2.e\	2g/
.	.	.	[2cc\
.	.	4d\	.
=147	=147	=147	=147
1.F	1c]	1c	2cc\]
.	.	.	2b\
.	1c	[1f	2a/
2E\	.	.	2g/
=148	=148	=148	=148
2D\	2r	1f]	2f/
2C/	1d	.	2e/
2BB/	.	[1g	[1d
2AA/	2c\	.	.
=149	=149	=149	=149
0GG	2B\	2g\]	1d]
.	2A/	2f\	.
.	1G	2e\	[1g
.	.	2d\	.
=150	=150	=150	=150
0D	0A	0d	1g]
.	.	.	1f#i
=151	=151	=151	=151
0GGl	0Gl	0dl	0gl
!!LO:LB:i:g=z
!!LO:TX:rj:i:Y=40:t=fine
=152||	=152||	=152||	=152||
*>D	*>D	*>D	*>D
*clefF4	*clefGv2	*clefGv2	*clefG2
*k[]	*k[]	*k[]	*k[]
*M2/1	*M2/1	*M2/1	*M2/1
*met(C|)	*met(C|)	*met(C|)	*met(C|)
!!section: Benedictus
!!!OMD: Benedictus
0r	0r	1G	0r
.	.	4G/	.
.	.	4A/	.
.	.	4B\	.
.	.	4c\	.
=153	=153	=153	=153
0r	0r	2B\	1g
.	.	1c	.
.	.	.	4g/
.	.	.	4a/
.	.	4B\	4b\
.	.	4A/	4cc\
=154	=154	=154	=154
0r	0r	2G/	2b\
.	.	2A/	1cc
.	.	1F	.
.	.	.	4b\
.	.	.	4a/
=155	=155	=155	=155
0r	0r	2E/	2g/
.	.	2.F/	2a/
.	.	.	1f
.	.	4D/	.
.	.	[2d\	.
=156	=156	=156	=156
0r	0r	2d\]	1e
.	.	2c\	.
.	.	2A/	2r
.	.	[2B\	[2dd\
=157	=157	=157	=157
0r	0r	2B\]	2dd\]
.	.	1A	2cc\
.	.	.	2a/
.	.	2G/	[2b\
=158	=158	=158	=158
0r	0r	2.A/	2b\]
.	.	.	1a
.	.	4B\	.
.	.	1c	.
.	.	.	2g/
=159	=159	=159	=159
0r	0r	1F	2.a/
.	.	.	4b\
.	.	2r	[1cc
.	.	2e\	.
=160	=160	=160	=160
0r	0r	1e	2cc\]
.	.	.	4b\
.	.	.	4a/
.	.	[1e	2g/
.	.	.	2c/
=161	=161	=161	=161
0r	0r	1e]	2r
.	.	.	1cc
.	.	[1f	.
.	.	.	4b\
.	.	.	4a/
=162	=162	=162	=162
0r	0r	2f\]	1a
.	.	4e\	.
.	.	4d\	.
.	.	2d\	1b
.	.	2G/	.
=163	=163	=163	=163
0r	0r	2r	1a
.	.	2d\	.
.	.	2c\	2r
.	.	2d\	2a/
=164	=164	=164	=164
0r	0r	2G/	2b\
.	.	2d\	2.a/
.	.	4c\	.
.	.	4B\	4g/
.	.	4c\	2a/
.	.	4d\	.
=165	=165	=165	=165
0r	0r	2G/	2b\
.	.	2.d\	1a
.	.	4c\	.
.	.	4B\	[2dd\
.	.	4A/	.
=166	=166	=166	=166
0r	0r	2G/	4dd\]
.	.	.	4cc\
.	.	2.g\	4b\
.	.	.	4a/
.	.	.	2.g/
.	.	4f\	.
.	.	4e\	.
.	.	4d\	4f/
=167	=167	=167	=167
0r	0r	1.c	2g/
.	.	.	1a
.	.	2B\	[2g/
=168	=168	=168	=168
0r	0r	1c	2g/]
.	.	.	1cc
.	.	1d	.
.	.	.	2b\
=169	=169	=169	=169
0r	0r	1.c	0cc
.	.	4B\	.
.	.	4A/	.
=170	=170	=170	=170
*M3/1	*M3/1	*M3/1	*M3/1
*met(3)	*met(3)	*met(3)	*met(3)
0.r	0.r	1A	0cc
.	.	2A/	.
.	.	2B\	.
.	.	2c\	1a
.	.	2d\	.
=171	=171	=171	=171
0.r	0.r	1G	0b
.	.	2G/	.
.	.	2A/	.
.	.	2B\	1g
.	.	2c\	.
=172	=172	=172	=172
0.r	0.r	1F	1a
.	.	0f	2a/
.	.	.	2b\
.	.	.	2cc\
.	.	.	2dd\
=173	=173	=173	=173
0.r	0.r	0e	1g
.	.	.	2g/
.	.	.	2a/
.	.	1e	2b\
.	.	.	2cc\
=174	=174	=174	=174
0.r	0.r	1d	1f
.	.	2d\	2f/
.	.	2e\	2g/
.	.	2f\	2a/
.	.	2g\	2b\
=175	=175	=175	=175
0.r	0.r	1e	2.cc\
.	.	.	4b\
.	.	2e\	2cc\
.	.	2f\	1dd
.	.	2g\	.
.	.	2a\	2cc#i\
=176	=176	=176	=176
*M2/1	*M2/1	*M2/1	*M2/1
*met(C|)	*met(C|)	*met(C|)	*met(C|)
0r	0r	1.d	1dd
.	.	.	2r
.	.	2G/	[2dd\
=177	=177	=177	=177
0r	0r	1G	2dd\]
.	.	.	4cc\
.	.	.	4b\
.	.	2r	2cc\
.	.	[2g\	[2dd\
=178	=178	=178	=178
0r	0r	2g\]	2dd\]
.	.	4f\	2g/
.	.	4e\	.
.	.	2f\	2a/
.	.	[2g\	2b\
=179	=179	=179	=179
0r	0r	2g\]	1g
.	.	2c\	.
.	.	2d\	2r
.	.	2e\	[2g/
=180	=180	=180	=180
0r	0r	2c\	4g/]
.	.	.	4f/
.	.	1g	1e
.	.	4f\	4d/
.	.	4e\	4c/
=181	=181	=181	=181
0r	0r	2f\	2d/
.	.	2.g\	2e/
.	.	.	2c/
.	.	4f\	.
.	.	4e\	[2cc\
.	.	4d\	.
=182	=182	=182	=182
0r	0r	2c\	2cc\]
.	.	1g	4b\
.	.	.	4a/
.	.	.	2b\
.	.	4f\	2cc\
.	.	4e\	.
=183	=183	=183	=183
0r	0r	2f\	2dd\
.	.	2g\	1g
.	.	1c	.
.	.	.	[2cc\
=184	=184	=184	=184
0r	0r	2r	2cc\]
.	.	1g	4b\
.	.	.	4a/
.	.	.	2b\
.	.	4f\	2cc\
.	.	4e\	.
=185	=185	=185	=185
0r	0r	2f\	2dd\
.	.	2g\	2g/
.	.	2e\	2.cc\
.	.	2c\	.
.	.	.	4a/
=186	=186	=186	=186
0r	0r	2.g\	2b\
.	.	.	2cc\
.	.	4e\	.
.	.	2f\	2dd\
.	.	2g\	[2b\
=187	=187	=187	=187
0r	0r	1G	4b\]
.	.	.	4a/
.	.	.	1g
.	.	1A	.
.	.	.	2f#i/
=188	=188	=188	=188
0r	0r	0Gl	0gl
!!LO:TX:i:Y=40:rj:t=Osanna ut supra
==	==	==	==
*-	*-	*-	*-
!!!RDF**kern: l=long note in original notation
!!!RDF**kern: i=editorial accidental
!!!RDF**kern: V=start of tuplet marker
!!!RDF**kern: Z=end of tuplet marker
!!!ENC:	Jesse Rodin; Chris Gage 10-25-2012
!!!END:	2012/11/10/
!!!EED:	Jesse Rodin
!!!EEV:	2012/12/15/
!!!ONB:	Translated from MusicXML and edited on 2012/12/15/ by Craig Sapp
!!muse2ps: T^@{OPR}^u^@{ONM}{. }@{OTL}^C^@{COM}^i2I150v85,85,85,150Q16
